dist/assets/images/index/list-4.svg

<svg width="53" height="53" viewBox="0 0 53 53" fill="none" xmlns="http://www.w3.org/2000/svg">
<circle cx="26.5" cy="26.5" r="26.5" fill="white"/>
<path d="M18.2498 38.2565L18.2379 38.2424L18.2253 38.2288C15.276 35.0534 13.6716 30.8473 13.753 26.5017C13.8013 24.6419 14.5731 22.8762 15.9015 21.5837C17.2276 20.2934 19.0026 19.5774 20.8459 19.5875C22.0991 19.636 23.3446 19.8082 24.5643 20.1017L24.5816 20.1058L24.599 20.1091L25.0782 20.2007L25.0782 20.2008L25.0901 20.2029C26.9192 20.5218 28.7988 20.3684 30.5525 19.7573C30.7942 19.6827 30.9773 19.6305 31.1204 19.6002L31.1206 19.6002C34.4018 18.9047 37.4716 20.1257 39.0124 22.5978L39.0128 22.5984C39.995 24.1708 40.3648 26.071 40.0737 28.4716L40.0736 28.4716L40.0723 28.4846C39.717 31.9142 38.3805 35.1661 36.2252 37.8467C34.4843 39.9626 32.7888 40.9122 30.8632 41.0264C30.1533 41.0682 28.1959 41.1057 26.2408 41.0781C25.2653 41.0644 24.3013 41.0345 23.5017 40.9819C22.6816 40.928 22.1206 40.8544 21.8775 40.7795C20.4681 40.2763 19.2162 39.4059 18.2498 38.2565Z" stroke="#DF0112" stroke-width="1.5"/>
<path d="M26.4609 13.013C24.8762 10.7098 18.4609 11.0132 18.4609 11.0132C18.4609 11.0132 19.4609 15.5001 21.9609 17C23.6274 17.9999 26.9609 18.013 26.9609 18.013C26.9609 18.013 27.5733 14.6296 26.4609 13.013Z" stroke="#0000FF" stroke-width="1.5"/>
</svg>

<svg width="53" height="53" fill="none" xmlns="http://www.w3.org/2000/svg"><circle cx="26.5" cy="26.5" r="26.5" fill="#fff"/><path d="M18.25 38.257l-.012-.015-.013-.013a16.772 16.772 0 01-4.472-11.727 7.12 7.12 0 012.149-4.918 7.035 7.035 0 014.944-1.997 19.04 19.04 0 013.718.515l.018.004.017.003.48.092h0l.011.002c1.83.319 3.709.165 5.462-.446.242-.074.425-.127.568-.157h0c3.282-.695 6.352.526 7.892 2.998h0c.983 1.573 1.353 3.473 1.062 5.874h0l-.002.013a17.882 17.882 0 01-3.847 9.362c-1.74 2.116-3.436 3.065-5.362 3.18-.71.041-2.667.079-4.622.051a55.464 55.464 0 01-2.74-.096c-.82-.054-1.38-.128-1.623-.203a8.454 8.454 0 01-3.628-2.523z" stroke="#DF0112" stroke-width="1.5"/><path d="M26.46 13.013c-1.584-2.303-8-2-8-2s1 4.487 3.5 5.987c1.667 1 5 1.013 5 1.013s.613-3.383-.5-5z" stroke="#00F" stroke-width="1.5"/></svg>
